assets/static/images/calendar-dark.svg

<svg width="24" height="24" viewBox="0 0 24 24" fill="none" xmlns="http://www.w3.org/2000/svg">
<path d="M20.7435 1.57086H19.6833L19.3803 2.70391C19.1279 3.73395 18.1434 4.50649 17.1336 4.50649C16.5782 4.50649 16.0481 4.27473 15.7452 3.83696C15.417 3.39919 15.316 2.80691 15.4675 2.24039L15.6442 1.57086H12.2363L11.9333 2.70391C11.6557 3.73395 10.6964 4.50649 9.66137 4.50649C9.106 4.50649 8.60112 4.27473 8.27295 3.83696C7.94477 3.39919 7.8438 2.80691 7.99526 2.24039L8.17197 1.57086H7.06123C5.36988 1.57086 3.67853 2.90992 3.24938 4.63524L0.119113 16.4035C-0.133327 17.3305 0.0181372 18.2576 0.548263 18.9271C1.05314 19.5966 1.83571 19.9829 2.71925 19.9829H4.25914V20.6782C4.25914 22.5065 5.7233 24.0001 7.51562 24.0001H20.7435C22.5358 24.0001 24 22.5065 24 20.6782V4.89275C24 3.06442 22.5358 1.57086 20.7435 1.57086ZM2.7445 17.9743C2.54254 17.9743 2.2901 17.9228 2.13864 17.7168C1.98717 17.5365 1.96193 17.2533 2.06291 16.9443L4.6378 7.10735H20.3396L17.8909 16.4292C17.6637 17.279 16.7802 18.0001 15.9724 18.0001H2.7445V17.9743ZM22.031 20.6782C22.031 21.3992 21.4503 21.9915 20.7435 21.9915H7.54087C6.83403 21.9915 6.25342 21.3992 6.25342 20.6782V19.9829H15.9724C17.6637 19.9829 19.3551 18.6438 19.7842 16.9185L22.031 8.3949V20.6782Z" fill="#404040"/>
<path d="M9.6614 3.57941C10.2673 3.57941 10.8731 3.09014 11.0246 2.47211L11.378 1.1073C11.5295 0.489272 11.176 0 10.5954 0C9.98957 0 9.38371 0.489272 9.23225 1.1073L8.87883 2.47211C8.72737 3.06439 9.08078 3.57941 9.6614 3.57941Z" fill="#404040"/>
<path d="M17.1336 3.57941C17.7394 3.57941 18.3453 3.09014 18.4968 2.47211L18.8502 1.1073C19.0016 0.489272 18.6482 0 18.0676 0C17.4617 0 16.8559 0.489272 16.7044 1.1073L16.3258 2.47211C16.1743 3.06439 16.5277 3.57941 17.1336 3.57941Z" fill="#404040"/>
<path d="M12.0594 13.1588H9.71167C9.5602 13.1588 9.38349 13.2876 9.33301 13.4421L8.87861 15.1931C8.82812 15.3476 8.9291 15.4764 9.08057 15.4764H11.4283C11.5797 15.4764 11.7564 15.3476 11.8069 15.1931L12.2613 13.4421C12.3118 13.2876 12.2108 13.1588 12.0594 13.1588Z" fill="#404040"/>
<path d="M7.91971 13.1588H5.57202C5.42055 13.1588 5.24384 13.2876 5.19336 13.4421L4.73896 15.1931C4.68848 15.3476 4.78945 15.4764 4.94092 15.4764H7.28861C7.44008 15.4764 7.61678 15.3476 7.66727 15.1931L8.12167 13.4421C8.17215 13.2876 8.09642 13.1588 7.91971 13.1588Z" fill="#404040"/>
<path d="M16.1995 13.1588H13.8518C13.7003 13.1588 13.5236 13.2876 13.4731 13.4421L13.0187 15.1931C12.9683 15.3476 13.0692 15.4764 13.2207 15.4764H15.5684C15.7199 15.4764 15.8966 15.3476 15.9471 15.1931L16.4015 13.4421C16.4519 13.2876 16.351 13.1588 16.1995 13.1588Z" fill="#404040"/>
<path d="M13.0188 9.47638H10.6711C10.5197 9.47638 10.343 9.60514 10.2925 9.75964L9.83808 11.5107C9.7876 11.6652 9.88857 11.794 10.04 11.794H12.3877C12.5392 11.794 12.7159 11.6652 12.7664 11.5107L13.2208 9.75964C13.2713 9.60514 13.1955 9.47638 13.0188 9.47638Z" fill="#404040"/>
<path d="M8.90385 9.47638H6.55615C6.40468 9.47638 6.22798 9.60514 6.17749 9.75964L5.72309 11.5107C5.67261 11.6652 5.77358 11.794 5.92505 11.794H8.27275C8.42421 11.794 8.60092 11.6652 8.65141 11.5107L9.1058 9.75964C9.15629 9.60514 9.05532 9.47638 8.90385 9.47638Z" fill="#404040"/>
<path d="M14.2051 11.8197H16.5528C16.7043 11.8197 16.881 11.691 16.9315 11.5365L17.3859 9.7854C17.4363 9.63089 17.3354 9.50214 17.1839 9.50214H14.8362C14.6847 9.50214 14.508 9.63089 14.4575 9.7854L14.0031 11.5365C13.9527 11.6652 14.0284 11.8197 14.2051 11.8197Z" fill="#404040"/>
</svg>

<svg width="24" height="24" fill="none" xmlns="http://www.w3.org/2000/svg"><path d="M20.744 1.57h-1.06l-.304 1.134c-.252 1.03-1.237 1.802-2.246 1.802-.556 0-1.086-.231-1.389-.669-.328-.438-.429-1.03-.277-1.597l.176-.67h-3.408l-.303 1.134c-.277 1.03-1.237 1.802-2.272 1.802-.555 0-1.06-.231-1.388-.669-.328-.438-.43-1.03-.278-1.597l.177-.67h-1.11c-1.692 0-3.383 1.34-3.813 3.065L.12 16.404c-.252.927-.1 1.854.43 2.523.504.67 1.287 1.056 2.17 1.056h1.54v.695C4.26 22.506 5.723 24 7.516 24h13.228C22.536 24 24 22.506 24 20.678V4.893c0-1.829-1.464-3.322-3.256-3.322zm-18 16.404c-.201 0-.454-.051-.605-.257-.152-.18-.177-.464-.076-.773l2.575-9.837H20.34l-2.45 9.322c-.226.85-1.11 1.571-1.918 1.571H2.745v-.026zm19.287 2.704c0 .721-.58 1.313-1.287 1.313H7.54c-.707 0-1.288-.592-1.288-1.313v-.695h9.72c1.69 0 3.382-1.34 3.811-3.064l2.247-8.524v12.283z" fill="#404040"/><path d="M9.661 3.58c.606 0 1.212-.49 1.364-1.108l.353-1.365C11.53.49 11.176 0 10.595 0 9.99 0 9.384.49 9.232 1.107L8.88 2.472c-.152.592.202 1.107.782 1.107zm7.473 0c.605 0 1.211-.49 1.363-1.108l.353-1.365C19.002.49 18.648 0 18.068 0c-.606 0-1.212.49-1.364 1.107l-.378 1.365c-.152.592.202 1.107.808 1.107zm-5.074 9.579H9.711a.44.44 0 00-.379.283l-.454 1.751c-.05.155.05.283.202.283h2.347a.44.44 0 00.379-.283l.454-1.75c.05-.155-.05-.284-.202-.284zm-4.14 0H5.572a.44.44 0 00-.379.283l-.454 1.751c-.05.155.05.283.202.283h2.348a.44.44 0 00.378-.283l.455-1.75c.05-.155-.026-.284-.202-.284zm8.28 0h-2.348a.44.44 0 00-.379.283l-.454 1.751c-.05.155.05.283.202.283h2.347a.44.44 0 00.38-.283l.453-1.75c.05-.155-.05-.284-.201-.284zm-3.181-3.683H10.67a.44.44 0 00-.378.284l-.455 1.75c-.05.155.05.284.202.284h2.348a.44.44 0 00.378-.283l.455-1.751c.05-.155-.026-.284-.202-.284zm-4.115 0H6.556a.44.44 0 00-.379.284l-.454 1.75c-.05.155.05.284.202.284h2.348a.44.44 0 00.378-.283l.455-1.751c.05-.155-.05-.284-.202-.284zm5.301 2.344h2.348a.439.439 0 00.378-.284l.455-1.75c.05-.155-.05-.284-.202-.284h-2.348a.44.44 0 00-.379.283l-.454 1.752a.204.204 0 00.202.283z" fill="#404040"/></svg>
